src/assets/curso/temas/tema_6/img_5.svg

<svg height="71.854" viewBox="0 0 71.854 71.854" width="71.854" xmlns="http://www.w3.org/2000/svg"><path d="m50.567 14.03a2.765 2.765 0 0 0 -2.758-2.758h-1.379l.661-1.159 3.836-6.722a2.784 2.784 0 0 1 2.399-1.391 2.7 2.7 0 0 1 1.344.348l8.379 4.659a2.76 2.76 0 0 1 1.426 2.411v.046a2.814 2.814 0 0 1 -.29 1.228l-6.026 12.053-5.274-.345-2.318-.151z" fill="#e6e9ed" transform="translate(6.221 -.841)"/><path d="m45.548 3.391 3.836 6.722-.661 1.159h-9.329a2.765 2.765 0 0 0 -2.758 2.758v5.354l-4.346-8.692a2.814 2.814 0 0 1 -.29-1.228v-.047a2.76 2.76 0 0 1 1.425-2.411l8.375-4.658a2.7 2.7 0 0 1 1.349-.348 2.784 2.784 0 0 1 2.4 1.391z" fill="#b4dd7f" transform="translate(3.927 -.841)"/><path d="m49.467 10a2.765 2.765 0 0 1 2.758 2.758v8.217l-4.636-.313-6.953-.462-4.636-.314v-7.128a2.765 2.765 0 0 1 2.758-2.758z" fill="#fcd770" transform="translate(4.563 .431)"/><path d="m29.589 10.318v2.318h-9.271a2.325 2.325 0 0 1 -2.318-2.318 2.335 2.335 0 0 1 2.318-2.318h6.954a2.325 2.325 0 0 1 2.317 2.318z" fill="#aab2bd" transform="translate(1.702 .113)"/><ellipse cx="66.031" cy="52.152" fill="#969faa" rx="4.626" ry="5.047"/><path d="m61.088 20.2-5.273-.348-2.315-.152-4.636-.313-6.954-.464-4.636-.313-2.318-.151-6.956-.459v9.272l1.843-1.843a1.639 1.639 0 0 1 2.793 1.159v5.32h2.318a4.634 4.634 0 0 1 4.636 4.636v2.318h18.543a4.635 4.635 0 0 0 4.636-4.636v-13.908z" fill="#ff826e" transform="translate(3.292 1.702)"/><path d="m39.086 30.954a4.634 4.634 0 0 1 4.636 4.636v27.81a4.634 4.634 0 0 1 -4.636 4.636h-32.45a4.634 4.634 0 0 1 -4.636-4.636v-27.811a4.634 4.634 0 0 1 4.636-4.636h20.864l4.636-4.636 1.843-1.843a1.639 1.639 0 0 1 2.793 1.159v5.32z" fill="#e6e9ed" transform="translate(-.841 2.656)"/><path d="m12.636 57.907v2.318h-4.636v-16.225h4.636z" fill="#b4dd7f" transform="translate(.113 5.835)"/><path d="m32.861 47.907a2.325 2.325 0 0 1 2.318 2.318 2.335 2.335 0 0 1 -2.318 2.318 2.325 2.325 0 0 1 2.318 2.318 2.335 2.335 0 0 1 -2.318 2.318 2.335 2.335 0 0 1 2.318 2.321 2.325 2.325 0 0 1 -2.318 2.318h-14.301a4.64 4.64 0 0 1 -3.28-1.356l-.962-.962h-2.318v-11.593l2.306-1.541a4.627 4.627 0 0 1 2.573-.776h.568a4.987 4.987 0 0 0 4.983-4.983v-5.448a1.162 1.162 0 0 1 1.159-1.159 3.472 3.472 0 0 1 3.477 3.477v5.795h5.795a2.335 2.335 0 0 1 2.318 2.318 2.325 2.325 0 0 1 -2.318 2.317z" fill="#f0d0b4" transform="translate(.748 4.245)"/><path d="m67.06 47.358h-22.02v-4.636h17.384a5.8 5.8 0 0 0 5.795-5.795v-14.992l-1.025-.068 5.246-10.493a3.979 3.979 0 0 0 .415-1.8 3.921 3.921 0 0 0 -2.017-3.427l-8.385-4.66a3.924 3.924 0 0 0 -5.307 1.483l-2.835 4.966-2.834-4.961a3.92 3.92 0 0 0 -5.308-1.481l-8.384 4.659a3.97 3.97 0 0 0 -1.6 5.221l4.215 8.443v.264l-6.954-.464v-8.187a3.481 3.481 0 0 0 -3.477-3.477h-6.949a3.477 3.477 0 1 0 0 6.954h8.113v14.587l-3.957 3.956h-20.381a5.8 5.8 0 0 0 -5.795 5.795v27.815a5.8 5.8 0 0 0 5.795 5.795h32.45a5.8 5.8 0 0 0 5.795-5.795v-17.384h17.414a5.735 5.735 0 0 0 -1.189 3.477 5.795 5.795 0 1 0 5.795-5.795zm-23.209-11.59h8.143v4.632h-6.954v-1.155a5.735 5.735 0 0 0 -1.189-3.477zm-5.813-6.954h7v4.636h-6.952v-4.156a2.726 2.726 0 0 0 -.048-.479zm7-6.1v3.786h-4.638v-4.1zm20.862 1.386v2.4h-4.635v-2.7zm-11.589 9.35v-4.635h4.636v4.635zm4.636 2.318v4.632h-4.636v-4.632zm-6.953-2.318h-4.636v-4.635h4.636zm9.272-4.636h4.634v4.636h-4.635zm-2.318-5.174v2.86h-4.637v-3.168zm-6.954 2.86h-4.636v-3.632l4.636.309zm10.43 13.9h-1.159v-4.632h4.635v1.159a3.481 3.481 0 0 1 -3.476 3.473zm-3.265-36.275a1.647 1.647 0 0 1 2.17-.6l8.384 4.659a1.652 1.652 0 0 1 .655 2.158l-5.682 11.358-5.739-.384v-7.124a3.917 3.917 0 0 0 -3.334-3.862zm-20.9 6.211a1.662 1.662 0 0 1 -.169-.757 1.6 1.6 0 0 1 .824-1.4l8.379-4.659a1.644 1.644 0 0 1 2.171.6l3.513 6.148h-8.653a3.925 3.925 0 0 0 -3.92 3.921v.442zm4.467 3.857a1.6 1.6 0 0 1 1.6-1.6h10.7a1.6 1.6 0 0 1 1.6 1.6v6.971l-13.907-.927zm-4.64 8.057v4.25h-2.8a2.808 2.808 0 0 0 -1.838.7v-5.26zm-15.066-9.661a1.159 1.159 0 1 1 0-2.318h6.954a1.159 1.159 0 0 1 1.159 1.159v1.159zm19.7 54.47a3.481 3.481 0 0 1 -3.477 3.477h-32.448a3.481 3.481 0 0 1 -3.477-3.476v-27.815a3.481 3.481 0 0 1 3.477-3.477h21.34l6.813-6.813a.5.5 0 0 1 .819.34v6.474h3.477a3.481 3.481 0 0 1 3.477 3.477zm24.34-10.43a3.477 3.477 0 1 1 3.477-3.477 3.481 3.481 0 0 1 -3.477 3.477z" transform="translate(-1 -1)"/><path d="m33.656 42.272h-4.636v-4.636a4.64 4.64 0 0 0 -4.636-4.636 2.32 2.32 0 0 0 -2.318 2.318v5.444a3.829 3.829 0 0 1 -3.828 3.828h-.563a5.764 5.764 0 0 0 -3.214.974l-.508.338v-1.313h-6.953v18.544h6.954v-2.318h.679l.62.62a5.759 5.759 0 0 0 4.1 1.7h14.3a3.462 3.462 0 0 0 2.573-5.795 3.424 3.424 0 0 0 0-4.636 3.424 3.424 0 0 0 0-4.636 3.462 3.462 0 0 0 -2.573-5.795zm-22.02 18.543h-2.318v-13.908h2.318zm22.02 0h-14.3a3.457 3.457 0 0 1 -2.464-1.015l-1.3-1.3h-1.638v-9.81l1.793-1.195a3.459 3.459 0 0 1 1.928-.584h.563a6.146 6.146 0 0 0 6.146-6.146v-5.447a2.32 2.32 0 0 1 2.316 2.318v6.954h6.954a1.159 1.159 0 1 1 0 2.318h-3.475v2.318h3.477a1.159 1.159 0 1 1 0 2.318h-3.477v2.318h3.477a1.159 1.159 0 0 1 0 2.318h-3.477v2.32h3.477a1.159 1.159 0 0 1 0 2.318z" transform="translate(-.046 4.086)"/><path d="m5 17h16.225v2.318h-16.225z" transform="translate(-.364 1.543)"/><path d="m5 21h16.225v2.318h-16.225z" transform="translate(-.364 2.179)"/><path d="m13 25h2.318v2.318h-2.318z" transform="translate(.907 2.815)"/><path d="m17 25h2.318v2.318h-2.318z" transform="translate(1.543 2.815)"/><path d="m5 25h2.318v2.318h-2.318z" transform="translate(-.364 2.815)"/><path d="m9 25h2.318v2.318h-2.318z" transform="translate(.272 2.815)"/><path d="m5 33h11.589v2.318h-11.589z" transform="translate(-.364 4.086)"/><path d="m5 37h11.589v2.318h-11.589z" transform="translate(-.364 4.722)"/></svg>

<svg xmlns="http://www.w3.org/2000/svg" width="71.854" height="71.854" viewBox="0 0 71.854 71.854">
  <g id="Grupo_1127756" data-name="Grupo 1127756" transform="translate(-1 -1)">
    <g id="Grupo_1127754" data-name="Grupo 1127754" transform="translate(2.159 2.159)">
      <g id="Grupo_1127745" data-name="Grupo 1127745" transform="translate(51.492)">
        <path id="Trazado_919413" data-name="Trazado 919413" d="M50.567,14.03a2.765,2.765,0,0,0-2.758-2.758H46.43l.661-1.159,3.836-6.722A2.784,2.784,0,0,1,53.326,2a2.7,2.7,0,0,1,1.344.348l8.379,4.659a2.76,2.76,0,0,1,1.426,2.411v.046a2.814,2.814,0,0,1-.29,1.228L58.159,22.745,52.885,22.4l-2.318-.151Z" transform="translate(-46.43 -2)" fill="#e6e9ed"/>
      </g>
      <g id="Grupo_1127746" data-name="Grupo 1127746" transform="translate(34.768 0)">
        <path id="Trazado_919414" data-name="Trazado 919414" d="M45.548,3.391l3.836,6.722-.661,1.159H39.394a2.765,2.765,0,0,0-2.758,2.758v5.354L32.29,10.692A2.814,2.814,0,0,1,32,9.464V9.417a2.76,2.76,0,0,1,1.425-2.411L41.8,2.348A2.7,2.7,0,0,1,43.149,2a2.784,2.784,0,0,1,2.4,1.391Z" transform="translate(-32 -2)" fill="#b4dd7f"/>
      </g>
      <g id="Grupo_1127747" data-name="Grupo 1127747" transform="translate(39.404 9.272)">
        <path id="Trazado_919415" data-name="Trazado 919415" d="M49.467,10a2.765,2.765,0,0,1,2.758,2.758v8.217l-4.636-.313L40.636,20.2,36,19.886V12.758A2.765,2.765,0,0,1,38.758,10H49.467Z" transform="translate(-36 -10)" fill="#fcd770"/>
      </g>
      <g id="Grupo_1127748" data-name="Grupo 1127748" transform="translate(18.543 6.954)">
        <path id="Trazado_919416" data-name="Trazado 919416" d="M29.589,10.318v2.318H20.318A2.325,2.325,0,0,1,18,10.318,2.335,2.335,0,0,1,20.318,8h6.954A2.325,2.325,0,0,1,29.589,10.318Z" transform="translate(-18 -8)" fill="#aab2bd"/>
      </g>
      <g id="Grupo_1127749" data-name="Grupo 1127749" transform="translate(60.246 45.946)">
        <ellipse id="Elipse_12365" data-name="Elipse 12365" cx="4.626" cy="5.047" rx="4.626" ry="5.047" transform="translate(0 0)" fill="#969faa"/>
      </g>
      <g id="Grupo_1127750" data-name="Grupo 1127750" transform="translate(30.133 18.543)">
        <path id="Trazado_919417" data-name="Trazado 919417" d="M61.088,20.2l-5.273-.348L53.5,19.7l-4.636-.313-6.954-.464-4.636-.313-2.318-.151L28,18v9.272l1.843-1.843a1.639,1.639,0,0,1,2.793,1.159v5.32h2.318a4.634,4.634,0,0,1,4.636,4.636v2.318H58.133a4.635,4.635,0,0,0,4.636-4.636V20.318Z" transform="translate(-28 -18)" fill="#ff826e"/>
      </g>
      <g id="Grupo_1127751" data-name="Grupo 1127751" transform="translate(0 25.497)">
        <path id="Trazado_919418" data-name="Trazado 919418" d="M39.086,30.954a4.634,4.634,0,0,1,4.636,4.636V63.4a4.634,4.634,0,0,1-4.636,4.636H6.636A4.634,4.634,0,0,1,2,63.4V35.589a4.634,4.634,0,0,1,4.636-4.636H27.5l4.636-4.636,1.843-1.843a1.639,1.639,0,0,1,2.793,1.159v5.32Z" transform="translate(-2 -24)" fill="#e6e9ed"/>
      </g>
      <g id="Grupo_1127752" data-name="Grupo 1127752" transform="translate(6.954 48.676)">
        <path id="Trazado_919419" data-name="Trazado 919419" d="M12.636,57.907v2.318H8V44h4.636V57.907Z" transform="translate(-8 -44)" fill="#b4dd7f"/>
      </g>
      <g id="Grupo_1127753" data-name="Grupo 1127753" transform="translate(11.589 37.086)">
        <path id="Trazado_919420" data-name="Trazado 919420" d="M32.861,47.907a2.325,2.325,0,0,1,2.318,2.318,2.335,2.335,0,0,1-2.318,2.318,2.325,2.325,0,0,1,2.318,2.318,2.335,2.335,0,0,1-2.318,2.318A2.335,2.335,0,0,1,35.179,59.5a2.325,2.325,0,0,1-2.318,2.318H18.56a4.64,4.64,0,0,1-3.28-1.356l-.962-.962H12V47.907l2.306-1.541a4.627,4.627,0,0,1,2.573-.776h.568a4.987,4.987,0,0,0,4.983-4.983V35.159A1.162,1.162,0,0,1,23.589,34a3.472,3.472,0,0,1,3.477,3.477v5.795h5.795a2.335,2.335,0,0,1,2.318,2.318A2.325,2.325,0,0,1,32.861,47.907Z" transform="translate(-12 -34)" fill="#f0d0b4"/>
      </g>
    </g>
    <g id="Grupo_1127755" data-name="Grupo 1127755" transform="translate(1 1)">
      <path id="Trazado_919421" data-name="Trazado 919421" d="M67.06,47.358H45.04V42.722H62.424a5.8,5.8,0,0,0,5.795-5.795V21.935l-1.025-.068L72.44,11.374a3.979,3.979,0,0,0,.415-1.8,3.921,3.921,0,0,0-2.017-3.427l-8.385-4.66a3.924,3.924,0,0,0-5.307,1.483L54.311,7.936,51.477,2.975a3.92,3.92,0,0,0-5.308-1.481L37.785,6.153a3.97,3.97,0,0,0-1.6,5.221L40.4,19.817v.264l-6.954-.464V11.43a3.481,3.481,0,0,0-3.477-3.477H23.02a3.477,3.477,0,1,0,0,6.954h8.113V29.494L27.176,33.45H6.795A5.8,5.8,0,0,0,1,39.245V67.06a5.8,5.8,0,0,0,5.795,5.795h32.45A5.8,5.8,0,0,0,45.04,67.06V49.676H62.454a5.735,5.735,0,0,0-1.189,3.477,5.795,5.795,0,1,0,5.795-5.795ZM43.851,35.768h8.143V40.4H45.04V39.245A5.735,5.735,0,0,0,43.851,35.768Zm-5.813-6.954h7V33.45H38.086V29.294A2.726,2.726,0,0,0,38.038,28.815Zm7-6.1V26.5H40.4V22.4ZM65.9,24.1V26.5H61.265V23.8ZM54.311,33.45V28.815h4.636V33.45Zm4.636,2.318V40.4H54.311V35.768ZM51.994,33.45H47.358V28.815h4.636Zm9.272-4.636H65.9V33.45H61.265Zm-2.318-5.174V26.5H54.311V23.332ZM51.994,26.5H47.358V22.868l4.636.309ZM62.424,40.4H61.265V35.768H65.9v1.159A3.481,3.481,0,0,1,62.424,40.4ZM59.159,4.125a1.647,1.647,0,0,1,2.17-.6l8.384,4.659a1.652,1.652,0,0,1,.655,2.158L64.686,21.7l-5.739-.384V14.192a3.917,3.917,0,0,0-3.334-3.862Zm-20.9,6.211a1.662,1.662,0,0,1-.169-.757,1.6,1.6,0,0,1,.824-1.4L47.293,3.52a1.644,1.644,0,0,1,2.171.6l3.513,6.148H44.324a3.925,3.925,0,0,0-3.92,3.921v.442Zm4.467,3.857a1.6,1.6,0,0,1,1.6-1.6h10.7a1.6,1.6,0,0,1,1.6,1.6v6.971l-13.907-.927ZM38.086,22.25V26.5h-2.8a2.808,2.808,0,0,0-1.838.7v-5.26ZM23.02,12.589a1.159,1.159,0,1,1,0-2.318h6.954a1.159,1.159,0,0,1,1.159,1.159v1.159Zm19.7,54.47a3.481,3.481,0,0,1-3.477,3.477H6.795A3.481,3.481,0,0,1,3.318,67.06V39.245a3.481,3.481,0,0,1,3.477-3.477H28.135l6.813-6.813a.5.5,0,0,1,.819.34v6.474h3.477a3.481,3.481,0,0,1,3.477,3.477ZM67.06,56.629a3.477,3.477,0,1,1,3.477-3.477A3.481,3.481,0,0,1,67.06,56.629Z" transform="translate(-1 -1)"/>
      <path id="Trazado_919422" data-name="Trazado 919422" d="M33.656,42.272H29.02V37.636A4.64,4.64,0,0,0,24.384,33a2.32,2.32,0,0,0-2.318,2.318v5.444a3.829,3.829,0,0,1-3.828,3.828h-.563a5.764,5.764,0,0,0-3.214.974l-.508.338V44.589H7V63.133h6.954V60.815h.679l.62.62a5.759,5.759,0,0,0,4.1,1.7h14.3a3.462,3.462,0,0,0,2.573-5.795,3.424,3.424,0,0,0,0-4.636,3.424,3.424,0,0,0,0-4.636,3.462,3.462,0,0,0-2.573-5.795ZM11.636,60.815H9.318V46.907h2.318Zm22.02,0h-14.3A3.457,3.457,0,0,1,16.892,59.8l-1.3-1.3H13.954v-9.81l1.793-1.195a3.459,3.459,0,0,1,1.928-.584h.563a6.146,6.146,0,0,0,6.146-6.146V35.318A2.32,2.32,0,0,1,26.7,37.636v6.954h6.954a1.159,1.159,0,1,1,0,2.318H30.179v2.318h3.477a1.159,1.159,0,1,1,0,2.318H30.179v2.318h3.477a1.159,1.159,0,0,1,0,2.318H30.179V58.5h3.477a1.159,1.159,0,0,1,0,2.318Z" transform="translate(-0.046 4.086)"/>
      <path id="Trazado_919423" data-name="Trazado 919423" d="M5,17H21.225v2.318H5Z" transform="translate(-0.364 1.543)"/>
      <path id="Trazado_919424" data-name="Trazado 919424" d="M5,21H21.225v2.318H5Z" transform="translate(-0.364 2.179)"/>
      <path id="Trazado_919425" data-name="Trazado 919425" d="M13,25h2.318v2.318H13Z" transform="translate(0.907 2.815)"/>
      <path id="Trazado_919426" data-name="Trazado 919426" d="M17,25h2.318v2.318H17Z" transform="translate(1.543 2.815)"/>
      <path id="Trazado_919427" data-name="Trazado 919427" d="M5,25H7.318v2.318H5Z" transform="translate(-0.364 2.815)"/>
      <path id="Trazado_919428" data-name="Trazado 919428" d="M9,25h2.318v2.318H9Z" transform="translate(0.272 2.815)"/>
      <path id="Trazado_919429" data-name="Trazado 919429" d="M5,33H16.589v2.318H5Z" transform="translate(-0.364 4.086)"/>
      <path id="Trazado_919430" data-name="Trazado 919430" d="M5,37H16.589v2.318H5Z" transform="translate(-0.364 4.722)"/>
    </g>
  </g>
</svg>
